assets/icons/qvision/flash_off.svg

<svg xmlns="http://www.w3.org/2000/svg" height="24" viewBox="0 0 24 24" width="24"><path d="M0 0h24v24H0z" fill="none"/><path d="M3.27 3L2 4.27l5 5V13h3v9l3.58-6.14L17.73 20 19 18.73 3.27 3zM17 10h-4l4-8H7v2.18l8.46 8.46L17 10z"/></svg>

<svg width="24" height="24" viewBox="0 0 24 24" fill="none" xmlns="http://www.w3.org/2000/svg">
<g clip-path="url(#clip0_147_3464)">
<path d="M3.27 3L2 4.27L7 9.27V13H10V22L13.58 15.86L17.73 20L19 18.73L3.27 3ZM17 10H13L17 2H7V4.18L15.46 12.64L17 10Z" fill="#323232"/>
</g>
<defs>
<clipPath id="clip0_147_3464">
<rect width="24" height="24" fill="white"/>
</clipPath>
</defs>
</svg>
